icons/imc-filled.svg

<svg xmlns="http://www.w3.org/2000/svg" width="24" height="24" viewBox="0 0 24 24">
    <path fill="#3A3A47" fill-rule="evenodd" d="M5.816 14.142v1.733H2v-1.733h.906V9.858H2V8.125h3.816v1.733H4.91v4.284h.906zm6.538-2.105l-1.58 2.973-.208-.399-1.344-2.575-.113-.242v4.08H7.196V8.126H9.2l1.585 3.139 1.566-3.139h2.014v7.75h-1.913v-4.041l-.098.203zM19.048 16c-.507 0-.967-.084-1.38-.252a2.792 2.792 0 0 1-1.065-.763 3.482 3.482 0 0 1-.67-1.24c-.156-.487-.233-1.051-.233-1.693 0-.634.077-1.201.232-1.701.156-.505.379-.932.668-1.28.292-.352.647-.62 1.064-.8.413-.181.875-.271 1.384-.271.694 0 1.276.149 1.74.45.465.302.832.772 1.105 1.403l.085.197-1.763.948-.085-.275a1.403 1.403 0 0 0-.373-.632c-.15-.139-.382-.213-.71-.213-.384 0-.68.125-.906.376-.228.254-.347.638-.347 1.162v1.168c0 .524.119.908.347 1.162.226.251.522.376.907.376.318 0 .56-.086.738-.254.198-.186.343-.41.438-.675l.098-.271L22 13.932l-.09.19c-.279.592-.648 1.054-1.11 1.38-.468.333-1.055.498-1.752.498z"/>
</svg>

<svg width="24" height="24" viewBox="0 0 24 24" fill="none" xmlns="http://www.w3.org/2000/svg">
<path fill-rule="evenodd" clip-rule="evenodd" d="M5.816 14.142V15.875H2V14.142H2.906V9.858H2V8.125H5.816V9.858H4.91V14.142H5.816ZM12.354 12.037L10.774 15.01L10.566 14.611L9.222 12.036L9.109 11.794V15.874H7.196V8.126H9.2L10.785 11.265L12.351 8.126H14.365V15.876H12.452V11.835L12.354 12.038V12.037ZM19.048 16C18.541 16 18.081 15.916 17.668 15.748C17.2575 15.5817 16.8925 15.3202 16.603 14.985C16.2975 14.6217 16.0695 14.1997 15.933 13.745C15.777 13.258 15.7 12.694 15.7 12.052C15.7 11.418 15.777 10.851 15.932 10.351C16.088 9.846 16.311 9.419 16.6 9.071C16.892 8.719 17.247 8.451 17.664 8.271C18.077 8.09 18.539 8 19.048 8C19.742 8 20.324 8.149 20.788 8.45C21.253 8.752 21.62 9.222 21.893 9.853L21.978 10.05L20.215 10.998L20.13 10.723C20.0639 10.483 19.9352 10.2648 19.757 10.091C19.607 9.952 19.375 9.878 19.047 9.878C18.663 9.878 18.367 10.003 18.141 10.254C17.913 10.508 17.794 10.892 17.794 11.416V12.584C17.794 13.108 17.913 13.492 18.141 13.746C18.367 13.997 18.663 14.122 19.048 14.122C19.366 14.122 19.608 14.036 19.786 13.868C19.984 13.682 20.129 13.458 20.224 13.193L20.322 12.922L22 13.932L21.91 14.122C21.631 14.714 21.262 15.176 20.8 15.502C20.332 15.835 19.745 16 19.048 16Z" fill="#3A3A47"/>
</svg>
